img/svg/ak06-2.svg

<svg width="30" height="21" viewBox="0 0 30 21" fill="none" xmlns="http://www.w3.org/2000/svg">
<path d="M15 6.04688C16.0312 6.04688 16.875 6.51562 17.625 7.35938C18.375 8.25 18.75 9.3281 18.75 10.5469C18.75 11.8125 18.375 12.8906 17.625 13.7344C16.875 14.625 16.0312 15.0469 15 15.0469C13.9688 15.0469 13.0781 14.625 12.3281 13.7344C11.5781 12.8906 11.25 11.8125 11.25 10.5469C11.25 9.3281 11.5781 8.25 12.3281 7.35938C13.0781 6.51562 13.9688 6.04688 15 6.04688ZM29.1094 1.03125C29.3906 1.17188 29.5781 1.35938 29.7656 1.59375C29.9062 1.875 30 2.15625 30 2.4375V17.2969C30 17.7656 29.8125 18.0938 29.5312 18.375C29.25 18.6562 28.875 18.7969 28.5 18.7969C28.3125 18.7969 28.1719 18.7969 27.9844 18.7031C26.625 18.3281 25.1719 18.0938 23.6719 18.0938C22.3594 18.0938 20.9062 18.2344 19.3125 18.5156C18.375 18.7031 16.9219 19.0781 15 19.5469C13.0312 20.0156 11.625 20.3438 10.6875 20.5312C9.04688 20.8594 7.59375 21 6.32812 21C4.35938 21 2.53125 20.6719 0.890625 19.9688C0.609375 19.875 0.375 19.6875 0.234375 19.4062C0.046875 19.1719 0 18.8906 0 18.5625V3.70312C0 3.28125 0.140625 2.90625 0.421875 2.625C0.703125 2.34375 1.07812 2.20312 1.5 2.20312C1.64062 2.20312 1.82812 2.25 2.01562 2.29688C3.32812 2.71875 4.78125 2.90625 6.32812 2.90625C7.59375 2.90625 9.04688 2.76562 10.6875 2.48438C11.625 2.29688 13.0312 1.96875 15 1.5C16.9219 1.03125 18.375 0.65625 19.3125 0.46875C20.9062 0.1875 22.3594 0 23.6719 0C25.6406 0 27.4219 0.375 29.1094 1.03125ZM27.75 16.3125V2.95312C26.4844 2.48438 25.125 2.25 23.6719 2.25C22.5 2.25 21.1875 2.39062 19.6875 2.67188C18.75 2.85938 17.3906 3.1875 15.5625 3.65625C13.5469 4.17188 12.0469 4.5 11.0156 4.6875C9.28125 5.01562 7.6875 5.15625 6.28125 5.15625C4.875 5.15625 3.51562 5.01562 2.25 4.6875V18.0469C3.46875 18.5156 4.82812 18.75 6.32812 18.75C7.45312 18.75 8.8125 18.6094 10.3125 18.3281C11.2031 18.1406 12.5625 17.8125 14.4375 17.3438C16.4062 16.875 17.9531 16.5 18.9844 16.3125C20.6719 16.0312 22.2656 15.8438 23.6719 15.8438C25.0781 15.8438 26.4375 16.0312 27.75 16.3125Z" fill="#FF7F00"/>
</svg>

<svg width="30" height="21" viewBox="0 0 30 21" fill="none" xmlns="http://www.w3.org/2000/svg"><path d="M15 6.047c1.031 0 1.875.469 2.625 1.312.75.891 1.125 1.97 1.125 3.188 0 1.265-.375 2.344-1.125 3.187-.75.891-1.594 1.313-2.625 1.313s-1.922-.422-2.672-1.313c-.75-.843-1.078-1.921-1.078-3.187 0-1.219.328-2.297 1.078-3.188.75-.843 1.64-1.312 2.672-1.312zM29.11 1.03c.28.14.468.328.656.563.14.281.234.562.234.843v14.86c0 .469-.188.797-.469 1.078a1.454 1.454 0 01-1.031.422c-.188 0-.328 0-.516-.094a16.242 16.242 0 00-4.312-.61c-1.313 0-2.766.141-4.36.423-.937.187-2.39.562-4.312 1.03-1.969.47-3.375.798-4.313.985-1.64.328-3.093.469-4.359.469-1.969 0-3.797-.328-5.437-1.031a1.109 1.109 0 01-.657-.563C.047 19.172 0 18.891 0 18.563V3.703c0-.422.14-.797.422-1.078.281-.281.656-.422 1.078-.422.14 0 .328.047.516.094 1.312.422 2.765.61 4.312.61 1.266 0 2.719-.141 4.36-.423.937-.187 2.343-.515 4.312-.984 1.922-.469 3.375-.844 4.313-1.031C20.905.188 22.358 0 23.672 0c1.969 0 3.75.375 5.437 1.031zm-1.36 15.281V2.954c-1.266-.469-2.625-.703-4.078-.703-1.172 0-2.485.14-3.985.422-.937.187-2.296.515-4.125.984-2.015.516-3.515.844-4.546 1.031a25.618 25.618 0 01-4.735.47c-1.406 0-2.765-.141-4.031-.47v13.36c1.219.469 2.578.703 4.078.703 1.125 0 2.484-.14 3.984-.422.891-.187 2.25-.515 4.126-.984 1.968-.469 3.515-.844 4.546-1.032 1.688-.28 3.282-.468 4.688-.468 1.406 0 2.765.187 4.078.469z" fill="#FF7F00"/></svg>
